X:1
T:Granny Will Your Dog Bite
L:1/8
M:C|
I:linebreak $
K:A
V:1 treble
V:1
 "A" A4 A,4 |"D" DEFD "A" E4 |"D" FEDF "A" EDCE |"D" DEFD "A" E2 (A2 |$
 "A" A2) A2 A,4 |"D" DEFD "A" E2 cc | e2 ef edcA |"E" BA "A" G2 A4 ::$
 "A"  efec cAcd | e2 ee "G"=gagf |"A"  efec cAcd |"E" ef a2 "A" a2 (a2 |$
 "A" e)fec cAcd | e2 ef "G"=gagf |"A"  efed cBAc |"E"  BA "A" G2 A4 :|
